src/icons/outline/navigation/chevron-left.svg

<svg width="24" height="24" viewBox="0 0 24 24" fill="none" xmlns="http://www.w3.org/2000/svg">
<g clip-path="url(#clip0_4573_374)">
<path d="M5.98065 10.8715C5.81241 11.0208 5.68315 11.1992 5.5904 11.3844L5.58525 11.3953C5.50273 11.5836 5.45459 11.7942 5.45459 11.9989C5.45459 12.1944 5.48912 12.4112 5.5904 12.6134C5.68315 12.7985 5.81241 12.977 5.98065 13.1263L16.8125 22.7356C17.0166 22.9166 17.2748 23 17.5284 23C17.782 23 18.0402 22.9166 18.2443 22.7356C18.6459 22.3792 18.6459 21.7873 18.2443 21.431L7.61216 11.9989L18.2443 2.56679C18.6459 2.21047 18.6459 1.61853 18.2443 1.2622C17.8502 0.912599 17.2066 0.912599 16.8125 1.2622L5.98065 10.8715Z" fill="#3C3B44"/>
</g>
<defs>
<clipPath id="clip0_4573_374">
<rect width="24" height="24" fill="white"/>
</clipPath>
</defs>
</svg>

<svg xmlns="http://www.w3.org/2000/svg" width="24" height="24" fill="none" viewBox="0 0 24 24"><g clip-path="url(#a)"><path fill="currentColor" d="M5.98 10.872a1.7 1.7 0 0 0-.39.512l-.005.011c-.082.189-.13.4-.13.604 0 .195.034.412.135.614a1.7 1.7 0 0 0 .39.513l10.833 9.61c.204.18.462.264.715.264.254 0 .512-.083.716-.264a.857.857 0 0 0 0-1.305L7.612 11.999l10.632-9.432a.857.857 0 0 0 0-1.305 1.11 1.11 0 0 0-1.431 0z"/></g><defs><clipPath id="a"><path fill="currentColor" d="M0 0h24v24H0z"/></clipPath></defs></svg>
